X:168
T:Shabes in Vilna
O:klezmer
M:4/4
L:1/8
Q:1/4=120
K:G
V:1
"G" D G/G/G GA Bc d|B GA GB cd2 |DG/G/ GG AB cd |"G" BG "D" AF "G" G4 :| |:
"G" e=f ed de dc |BG AG Bc d2 |e=f ed de dc |"G" BG "D" AF "G" G4 :| |:
"Em" A3/2 _B/)AG FG A2 |A/B/G F/G/E FG A2 |A3/2 _B/AG FG A2 |"Em" A/_B/G "B" F/G/E "Em" E2 z2 :|





